public/dapabe.svg

<svg xmlns="http://www.w3.org/2000/svg" viewBox="0 0 294 75" fill="none">
<g filter="url(#filter0_i_203_2)">
<path d="M24.7898 56.32C21.4191 56.32 18.3898 55.552 15.7018 54.016C13.0138 52.4373 10.8804 50.304 9.30175 47.616C7.76575 44.928 6.99775 41.8773 6.99775 38.464C6.99775 35.0933 7.74442 32.064 9.23775 29.376C10.7737 26.688 12.8431 24.576 15.4458 23.04C18.0484 21.4613 20.9924 20.672 24.2778 20.672C27.1364 20.672 29.7178 21.2907 32.0218 22.528C34.3258 23.7227 36.1818 25.3227 37.5898 27.328V8.512C37.5898 7.744 37.8244 7.14666 38.2938 6.72C38.7631 6.25067 39.3604 6.016 40.0858 6.016C40.8111 6.016 41.4084 6.25067 41.8778 6.72C42.3471 7.14666 42.5818 7.744 42.5818 8.512V38.72C42.4964 42.048 41.6644 45.056 40.0858 47.744C38.5498 50.3893 36.4378 52.48 33.7498 54.016C31.1044 55.552 28.1178 56.32 24.7898 56.32ZM24.7898 51.84C27.2644 51.84 29.4618 51.264 31.3818 50.112C33.3444 48.9173 34.8804 47.3173 35.9897 45.312C37.1418 43.3067 37.7178 41.024 37.7178 38.464C37.7178 35.9467 37.1418 33.6853 35.9897 31.68C34.8804 29.632 33.3444 28.032 31.3818 26.88C29.4618 25.728 27.2644 25.152 24.7898 25.152C22.3578 25.152 20.1604 25.728 18.1978 26.88C16.2351 28.032 14.6778 29.632 13.5258 31.68C12.3738 33.6853 11.7978 35.9467 11.7978 38.464C11.7978 41.024 12.3738 43.3067 13.5258 45.312C14.6778 47.3173 16.2351 48.9173 18.1978 50.112C20.1604 51.264 22.3578 51.84 24.7898 51.84ZM69.5278 56.32C66.2424 56.32 63.2984 55.552 60.6958 54.016C58.0931 52.4373 56.0237 50.304 54.4878 47.616C52.9944 44.928 52.2478 41.8987 52.2478 38.528C52.2478 35.1147 53.0158 32.064 54.5518 29.376C56.1304 26.688 58.2638 24.576 60.9518 23.04C63.6398 21.4613 66.6691 20.672 70.0398 20.672C73.4104 20.672 76.4184 21.4613 79.0638 23.04C81.7518 24.576 83.8638 26.688 85.3998 29.376C86.9784 32.064 87.7891 35.1147 87.8318 38.528L85.8478 40.064C85.8478 43.136 85.1224 45.9093 83.6718 48.384C82.2638 50.816 80.3224 52.7573 77.8478 54.208C75.4158 55.616 72.6424 56.32 69.5278 56.32ZM70.0398 51.84C72.5144 51.84 74.7118 51.264 76.6318 50.112C78.5944 48.96 80.1304 47.3813 81.2397 45.376C82.3918 43.328 82.9678 41.0453 82.9678 38.528C82.9678 35.968 82.3918 33.6853 81.2397 31.68C80.1304 29.6747 78.5944 28.096 76.6318 26.944C74.7118 25.7493 72.5144 25.152 70.0398 25.152C67.6078 25.152 65.4104 25.7493 63.4478 26.944C61.4851 28.096 59.9278 29.6747 58.7758 31.68C57.6238 33.6853 57.0478 35.968 57.0478 38.528C57.0478 41.0453 57.6238 43.328 58.7758 45.376C59.9278 47.3813 61.4851 48.96 63.4478 50.112C65.4104 51.264 67.6078 51.84 70.0398 51.84ZM85.3358 56C84.6104 56 84.0131 55.7867 83.5438 55.36C83.0744 54.8907 82.8398 54.2933 82.8398 53.568V42.624L84.0558 37.568L87.8318 38.528V53.568C87.8318 54.2933 87.5971 54.8907 87.1278 55.36C86.6584 55.7867 86.0611 56 85.3358 56ZM99.9123 70.976C99.1443 70.976 98.5256 70.7413 98.0563 70.272C97.6296 69.8453 97.4163 69.248 97.4163 68.48V38.272C97.4589 34.944 98.2483 31.9573 99.7843 29.312C101.363 26.624 103.475 24.512 106.12 22.976C108.808 21.44 111.816 20.672 115.144 20.672C118.558 20.672 121.608 21.4613 124.296 23.04C126.984 24.576 129.096 26.688 130.632 29.376C132.211 32.064 133 35.1147 133 38.528C133 41.8987 132.232 44.928 130.696 47.616C129.203 50.304 127.155 52.4373 124.552 54.016C121.95 55.552 119.006 56.32 115.72 56.32C112.862 56.32 110.259 55.7227 107.912 54.528C105.608 53.2907 103.752 51.6693 102.344 49.664V68.48C102.344 69.248 102.11 69.8453 101.64 70.272C101.214 70.7413 100.638 70.976 99.9123 70.976ZM115.144 51.84C117.619 51.84 119.838 51.264 121.8 50.112C123.763 48.96 125.299 47.3813 126.408 45.376C127.56 43.328 128.136 41.0453 128.136 38.528C128.136 35.968 127.56 33.6853 126.408 31.68C125.299 29.6747 123.763 28.096 121.8 26.944C119.838 25.7493 117.619 25.152 115.144 25.152C112.712 25.152 110.515 25.7493 108.552 26.944C106.59 28.096 105.054 29.6747 103.944 31.68C102.835 33.6853 102.28 35.968 102.28 38.528C102.28 41.0453 102.835 43.328 103.944 45.376C105.054 47.3813 106.59 48.96 108.552 50.112C110.515 51.264 112.712 51.84 115.144 51.84Z" fill="#EFD9CE"/>
</g>
<g filter="url(#filter1_d_203_2)">
<path d="M160.747 56.32C157.461 56.32 154.517 55.552 151.915 54.016C149.312 52.4373 147.242 50.304 145.707 47.616C144.213 44.928 143.467 41.8987 143.467 38.528C143.467 35.1147 144.235 32.064 145.771 29.376C147.349 26.688 149.483 24.576 152.171 23.04C154.859 21.4613 157.888 20.672 161.259 20.672C164.629 20.672 167.637 21.4613 170.283 23.04C172.971 24.576 175.083 26.688 176.619 29.376C178.197 32.064 179.008 35.1147 179.051 38.528L177.067 40.064C177.067 43.136 176.341 45.9093 174.891 48.384C173.483 50.816 171.541 52.7573 169.067 54.208C166.635 55.616 163.861 56.32 160.747 56.32ZM161.259 51.84C163.733 51.84 165.931 51.264 167.851 50.112C169.813 48.96 171.349 47.3813 172.458 45.376C173.611 43.328 174.187 41.0453 174.187 38.528C174.187 35.968 173.611 33.6853 172.458 31.68C171.349 29.6747 169.813 28.096 167.851 26.944C165.931 25.7493 163.733 25.152 161.259 25.152C158.827 25.152 156.629 25.7493 154.667 26.944C152.704 28.096 151.147 29.6747 149.995 31.68C148.843 33.6853 148.267 35.968 148.267 38.528C148.267 41.0453 148.843 43.328 149.995 45.376C151.147 47.3813 152.704 48.96 154.667 50.112C156.629 51.264 158.827 51.84 161.259 51.84ZM176.555 56C175.829 56 175.232 55.7867 174.763 55.36C174.293 54.8907 174.059 54.2933 174.059 53.568V42.624L175.275 37.568L179.051 38.528V53.568C179.051 54.2933 178.816 54.8907 178.347 55.36C177.877 55.7867 177.28 56 176.555 56ZM206.363 56.32C203.035 56.32 200.027 55.552 197.339 54.016C194.694 52.48 192.582 50.3893 191.003 47.744C189.467 45.056 188.678 42.048 188.635 38.72V8.512C188.635 7.744 188.848 7.14666 189.275 6.72C189.744 6.25067 190.363 6.016 191.131 6.016C191.856 6.016 192.432 6.25067 192.859 6.72C193.328 7.14666 193.563 7.744 193.563 8.512V27.328C194.971 25.3227 196.827 23.7227 199.131 22.528C201.478 21.2907 204.08 20.672 206.939 20.672C210.224 20.672 213.168 21.4613 215.771 23.04C218.374 24.576 220.422 26.688 221.915 29.376C223.451 32.064 224.219 35.0933 224.219 38.464C224.219 41.8773 223.43 44.928 221.851 47.616C220.315 50.304 218.203 52.4373 215.515 54.016C212.827 55.552 209.776 56.32 206.363 56.32ZM206.363 51.84C208.838 51.84 211.056 51.264 213.019 50.112C214.982 48.9173 216.518 47.3173 217.627 45.312C218.779 43.3067 219.355 41.024 219.355 38.464C219.355 35.9467 218.779 33.6853 217.627 31.68C216.518 29.632 214.982 28.032 213.019 26.88C211.056 25.728 208.838 25.152 206.363 25.152C203.931 25.152 201.734 25.728 199.771 26.88C197.808 28.032 196.272 29.632 195.163 31.68C194.054 33.6853 193.499 35.9467 193.499 38.464C193.499 41.024 194.054 43.3067 195.163 45.312C196.272 47.3173 197.808 48.9173 199.771 50.112C201.734 51.264 203.931 51.84 206.363 51.84ZM249.757 56.32C246.301 56.32 243.229 55.5733 240.541 54.08C237.896 52.544 235.805 50.432 234.269 47.744C232.776 45.056 232.029 41.984 232.029 38.528C232.029 35.0293 232.733 31.9573 234.141 29.312C235.592 26.624 237.576 24.512 240.093 22.976C242.61 21.44 245.512 20.672 248.797 20.672C252.04 20.672 254.856 21.4187 257.245 22.912C259.677 24.3627 261.554 26.3893 262.877 28.992C264.2 31.5947 264.861 34.56 264.861 37.888C264.861 38.5707 264.648 39.1253 264.221 39.552C263.794 39.936 263.24 40.128 262.557 40.128H235.357V36.032H263.069L260.317 38.016C260.36 35.5413 259.912 33.3227 258.973 31.36C258.034 29.3973 256.69 27.8613 254.941 26.752C253.234 25.6427 251.186 25.088 248.797 25.088C246.365 25.088 244.232 25.664 242.397 26.816C240.562 27.968 239.133 29.568 238.109 31.616C237.128 33.6213 236.637 35.9253 236.637 38.528C236.637 41.1307 237.192 43.4347 238.301 45.44C239.453 47.4453 241.01 49.024 242.973 50.176C244.936 51.328 247.197 51.904 249.757 51.904C251.293 51.904 252.829 51.648 254.365 51.136C255.944 50.5813 257.202 49.8987 258.141 49.088C258.61 48.704 259.144 48.512 259.741 48.512C260.338 48.4693 260.85 48.6187 261.277 48.96C261.832 49.472 262.109 50.0267 262.109 50.624C262.152 51.2213 261.917 51.7333 261.405 52.16C259.997 53.3547 258.205 54.3573 256.029 55.168C253.853 55.936 251.762 56.32 249.757 56.32Z" fill="#1C1B20"/>
</g>
<g filter="url(#filter2_i_203_2)">
<circle cx="284" cy="46" r="10" fill="#EF4444"/>
</g>
<defs>
<filter id="filter0_i_203_2" x="6.99775" y="6.016" width="126.002" height="67.96" filterUnits="userSpaceOnUse" color-interpolation-filters="sRGB">
<feFlood flood-opacity="0" result="BackgroundImageFix"/>
<feBlend mode="normal" in="SourceGraphic" in2="BackgroundImageFix" result="shape"/>
<feColorMatrix in="SourceAlpha" type="matrix" values="0 0 0 0 0 0 0 0 0 0 0 0 0 0 0 0 0 0 127 0" result="hardAlpha"/>
<feOffset dy="3"/>
<feGaussianBlur stdDeviation="2"/>
<feComposite in2="hardAlpha" operator="arithmetic" k2="-1" k3="1"/>
<feColorMatrix type="matrix" values="0 0 0 0 0.109804 0 0 0 0 0.105882 0 0 0 0 0.12549 0 0 0 0.25 0"/>
<feBlend mode="normal" in2="shape" result="effect1_innerShadow_203_2"/>
</filter>
<filter id="filter1_d_203_2" x="137.467" y="4.016" width="133.394" height="62.304" filterUnits="userSpaceOnUse" color-interpolation-filters="sRGB">
<feFlood flood-opacity="0" result="BackgroundImageFix"/>
<feColorMatrix in="SourceAlpha" type="matrix" values="0 0 0 0 0 0 0 0 0 0 0 0 0 0 0 0 0 0 127 0" result="hardAlpha"/>
<feOffset dy="4"/>
<feGaussianBlur stdDeviation="3"/>
<feComposite in2="hardAlpha" operator="out"/>
<feColorMatrix type="matrix" values="0 0 0 0 0.109804 0 0 0 0 0.105882 0 0 0 0 0.12549 0 0 0 0.25 0"/>
<feBlend mode="normal" in2="BackgroundImageFix" result="effect1_dropShadow_203_2"/>
<feBlend mode="normal" in="SourceGraphic" in2="effect1_dropShadow_203_2" result="shape"/>
</filter>
<filter id="filter2_i_203_2" x="274" y="36" width="20" height="24" filterUnits="userSpaceOnUse" color-interpolation-filters="sRGB">
<feFlood flood-opacity="0" result="BackgroundImageFix"/>
<feBlend mode="normal" in="SourceGraphic" in2="BackgroundImageFix" result="shape"/>
<feColorMatrix in="SourceAlpha" type="matrix" values="0 0 0 0 0 0 0 0 0 0 0 0 0 0 0 0 0 0 127 0" result="hardAlpha"/>
<feOffset dy="4"/>
<feGaussianBlur stdDeviation="2"/>
<feComposite in2="hardAlpha" operator="arithmetic" k2="-1" k3="1"/>
<feColorMatrix type="matrix" values="0 0 0 0 0 0 0 0 0 0 0 0 0 0 0 0 0 0 0.25 0"/>
<feBlend mode="normal" in2="shape" result="effect1_innerShadow_203_2"/>
</filter>
</defs>
</svg>

<svg xmlns="http://www.w3.org/2000/svg" viewBox="0 0 294 75" fill="none"><g filter="url(#a)"><path d="M24.79 56.32c-3.37 0-6.4-.77-9.09-2.3a17.7 17.7 0 0 1-6.4-6.4A18.12 18.12 0 0 1 7 38.46c0-3.37.74-6.4 2.24-9.08a17.02 17.02 0 0 1 15.04-8.7c2.86 0 5.44.61 7.74 1.85 2.3 1.2 4.16 2.8 5.57 4.8V8.5c0-.77.23-1.36.7-1.79.47-.47 1.07-.7 1.8-.7.72 0 1.32.23 1.79.7.47.43.7 1.02.7 1.8v30.2a18.45 18.45 0 0 1-2.5 9.02 16.87 16.87 0 0 1-6.33 6.28 17.51 17.51 0 0 1-8.96 2.3Zm0-4.48c2.47 0 4.67-.58 6.6-1.73a13.5 13.5 0 0 0 6.34-11.65c-.01-2.51-.59-4.77-1.74-6.78a12.17 12.17 0 0 0-4.6-4.8 12.56 12.56 0 0 0-6.6-1.73 12.63 12.63 0 0 0-11.26 6.53c-1.16 2-1.73 4.27-1.73 6.78a13.26 13.26 0 0 0 6.4 11.65 12.78 12.78 0 0 0 6.59 1.73Zm44.74 4.48c-3.29 0-6.23-.77-8.83-2.3a17.52 17.52 0 0 1-6.21-6.4 18.4 18.4 0 0 1-2.24-9.1c0-3.4.77-6.46 2.3-9.14a17.2 17.2 0 0 1 6.4-6.34 17.6 17.6 0 0 1 9.09-2.37c3.37 0 6.38.8 9.02 2.37a16.73 16.73 0 0 1 6.34 6.34 18.2 18.2 0 0 1 2.43 9.15l-1.98 1.53a16.14 16.14 0 0 1-8 14.15 16.3 16.3 0 0 1-8.32 2.11Zm.51-4.48a12.56 12.56 0 0 0 11.2-6.46 13.72 13.72 0 0 0 1.73-6.85c0-2.56-.58-4.84-1.73-6.85-1.11-2-2.65-3.58-4.6-4.74a12.22 12.22 0 0 0-6.6-1.79c-2.43 0-4.63.6-6.6 1.8a12.76 12.76 0 0 0-4.66 4.73 13.5 13.5 0 0 0-1.73 6.85c0 2.52.57 4.8 1.73 6.85a12.76 12.76 0 0 0 11.26 6.46ZM85.34 56c-.73 0-1.33-.21-1.8-.64a2.43 2.43 0 0 1-.7-1.8V42.63l1.22-5.05 3.77.96v15.04c0 .72-.23 1.32-.7 1.79-.47.43-1.07.64-1.8.64ZM99.9 70.98a2.5 2.5 0 0 1-1.85-.7 2.42 2.42 0 0 1-.64-1.8v-30.2c.04-3.34.83-6.32 2.36-8.97 1.58-2.69 3.7-4.8 6.34-6.33 2.69-1.54 5.7-2.3 9.02-2.3 3.42 0 6.47.78 9.16 2.36a16.73 16.73 0 0 1 6.33 6.34 17.73 17.73 0 0 1 2.37 9.15c0 3.37-.77 6.4-2.3 9.09a17.02 17.02 0 0 1-6.15 6.4 17.04 17.04 0 0 1-8.83 2.3c-2.86 0-5.46-.6-7.8-1.8a15.82 15.82 0 0 1-5.58-4.86v18.82a2.3 2.3 0 0 1-.7 1.8c-.43.46-1 .7-1.73.7Zm15.23-19.14c2.48 0 4.7-.58 6.66-1.73a12.28 12.28 0 0 0 4.6-4.73 13.72 13.72 0 0 0 1.74-6.85c0-2.56-.58-4.84-1.73-6.85-1.11-2-2.65-3.58-4.61-4.74a12.54 12.54 0 0 0-6.66-1.79c-2.43 0-4.63.6-6.59 1.8a12.3 12.3 0 0 0-4.6 4.73c-1.12 2-1.67 4.29-1.67 6.85 0 2.52.55 4.8 1.66 6.85a12.3 12.3 0 0 0 4.61 4.73 12.78 12.78 0 0 0 6.6 1.73Z" fill="#EFD9CE"/></g><g filter="url(#b)"><path d="M160.75 56.32c-3.29 0-6.23-.77-8.84-2.3a17.5 17.5 0 0 1-6.2-6.4 18.39 18.39 0 0 1-2.24-9.1c0-3.4.77-6.46 2.3-9.14a17.2 17.2 0 0 1 6.4-6.34 17.6 17.6 0 0 1 9.09-2.37c3.37 0 6.38.8 9.02 2.37a16.73 16.73 0 0 1 6.34 6.34 18.2 18.2 0 0 1 2.43 9.15l-1.98 1.53a16.15 16.15 0 0 1-8 14.15 16.3 16.3 0 0 1-8.32 2.11Zm.5-4.48a12.56 12.56 0 0 0 11.2-6.46 13.71 13.71 0 0 0 1.74-6.85c0-2.56-.58-4.84-1.73-6.85-1.11-2-2.65-3.58-4.6-4.74a12.22 12.22 0 0 0-6.6-1.79c-2.43 0-4.63.6-6.6 1.8a12.76 12.76 0 0 0-4.66 4.73 13.5 13.5 0 0 0-1.73 6.85c0 2.52.57 4.8 1.72 6.85a12.76 12.76 0 0 0 11.27 6.46Zm15.3 4.16c-.72 0-1.32-.21-1.79-.64a2.42 2.42 0 0 1-.7-1.8V42.63l1.22-5.05 3.77.96v15.04c0 .72-.23 1.32-.7 1.79-.47.43-1.07.64-1.8.64Zm29.81.32c-3.33 0-6.33-.77-9.02-2.3a17.51 17.51 0 0 1-6.34-6.28 18.35 18.35 0 0 1-2.37-9.02V8.52c0-.78.22-1.37.65-1.8a2.5 2.5 0 0 1 1.85-.7c.73 0 1.3.23 1.73.7.47.43.7 1.02.7 1.8v18.8c1.41-2 3.27-3.6 5.57-4.8a16.48 16.48 0 0 1 7.8-1.85c3.3 0 6.24.8 8.84 2.37a16.54 16.54 0 0 1 6.14 6.34 17.99 17.99 0 0 1 2.3 9.08 17.73 17.73 0 0 1-8.7 15.56 18.12 18.12 0 0 1-9.15 2.3Zm0-4.48c2.48 0 4.7-.58 6.66-1.73a13.5 13.5 0 0 0 6.34-11.65c0-2.51-.58-4.77-1.73-6.78a12.17 12.17 0 0 0-4.61-4.8 12.9 12.9 0 0 0-6.66-1.73c-2.43 0-4.63.58-6.59 1.73a12.17 12.17 0 0 0-4.6 4.8c-1.12 2-1.67 4.27-1.67 6.78 0 2.56.55 4.85 1.66 6.85 1.11 2 2.65 3.6 4.61 4.8a12.78 12.78 0 0 0 6.6 1.73Zm43.4 4.48c-3.46 0-6.53-.75-9.22-2.24a16.87 16.87 0 0 1-6.27-6.34 18.66 18.66 0 0 1-2.24-9.21c0-3.5.7-6.57 2.11-9.22a16.38 16.38 0 0 1 5.95-6.33 16.37 16.37 0 0 1 8.7-2.3c3.25 0 6.07.74 8.46 2.23a14.64 14.64 0 0 1 5.63 6.08 19.36 19.36 0 0 1 1.98 8.9c0 .68-.21 1.24-.64 1.66a2.4 2.4 0 0 1-1.66.58h-27.2v-4.1h27.7l-2.74 1.99c.04-2.48-.4-4.7-1.35-6.66a10.88 10.88 0 0 0-4.03-4.6 11.03 11.03 0 0 0-6.14-1.67c-2.44 0-4.57.57-6.4 1.73a11.71 11.71 0 0 0-4.3 4.8c-.97 2-1.46 4.3-1.46 6.9 0 2.61.55 4.91 1.66 6.92 1.15 2 2.71 3.58 4.67 4.74a13.15 13.15 0 0 0 6.79 1.72c1.53 0 3.07-.25 4.6-.76a11.63 11.63 0 0 0 3.78-2.05c.47-.39 1-.58 1.6-.58.6-.04 1.11.1 1.54.45.55.51.83 1.07.83 1.66.04.6-.2 1.11-.7 1.54-1.41 1.2-3.2 2.2-5.38 3a18.82 18.82 0 0 1-6.27 1.16Z" fill="#1C1B20"/></g><g filter="url(#c)"><circle cx="284" cy="46" r="10" fill="#EF4444"/></g><defs><filter id="a" x="7" y="6.02" width="126" height="67.96" filterUnits="userSpaceOnUse" color-interpolation-filters="sRGB"><feFlood flood-opacity="0" result="BackgroundImageFix"/><feBlend in="SourceGraphic" in2="BackgroundImageFix" result="shape"/><feColorMatrix in="SourceAlpha" values="0 0 0 0 0 0 0 0 0 0 0 0 0 0 0 0 0 0 127 0" result="hardAlpha"/><feOffset dy="3"/><feGaussianBlur stdDeviation="2"/><feComposite in2="hardAlpha" operator="arithmetic" k2="-1" k3="1"/><feColorMatrix values="0 0 0 0 0.109804 0 0 0 0 0.105882 0 0 0 0 0.12549 0 0 0 0.25 0"/><feBlend in2="shape" result="effect1_innerShadow_203_2"/></filter><filter id="b" x="137.47" y="4.02" width="133.39" height="62.3" filterUnits="userSpaceOnUse" color-interpolation-filters="sRGB"><feFlood flood-opacity="0" result="BackgroundImageFix"/><feColorMatrix in="SourceAlpha" values="0 0 0 0 0 0 0 0 0 0 0 0 0 0 0 0 0 0 127 0" result="hardAlpha"/><feOffset dy="4"/><feGaussianBlur stdDeviation="3"/><feComposite in2="hardAlpha" operator="out"/><feColorMatrix values="0 0 0 0 0.109804 0 0 0 0 0.105882 0 0 0 0 0.12549 0 0 0 0.25 0"/><feBlend in2="BackgroundImageFix" result="effect1_dropShadow_203_2"/><feBlend in="SourceGraphic" in2="effect1_dropShadow_203_2" result="shape"/></filter><filter id="c" x="274" y="36" width="20" height="24" filterUnits="userSpaceOnUse" color-interpolation-filters="sRGB"><feFlood flood-opacity="0" result="BackgroundImageFix"/><feBlend in="SourceGraphic" in2="BackgroundImageFix" result="shape"/><feColorMatrix in="SourceAlpha" values="0 0 0 0 0 0 0 0 0 0 0 0 0 0 0 0 0 0 127 0" result="hardAlpha"/><feOffset dy="4"/><feGaussianBlur stdDeviation="2"/><feComposite in2="hardAlpha" operator="arithmetic" k2="-1" k3="1"/><feColorMatrix values="0 0 0 0 0 0 0 0 0 0 0 0 0 0 0 0 0 0 0.25 0"/><feBlend in2="shape" result="effect1_innerShadow_203_2"/></filter></defs></svg>
